X:38
T:RVW2/2/38 I Am A Rover
C:Ted Nevill, Little Bursted, Essex, 16 Apr 1904.
L:1/8
Q:1/4=80
M:3/4
I:linebreak $
K:G
"^(Editorial suggestion)  " D | GG G2 FE | DD D3 G/G/ | GG G2 FD | GG A3 D |$ BB c2 cd | GG A3 G | 
w: I|am a ro- ver and|'tis well known I am|just a- go- ing to|leave my home, leav-|ing my pa- rents to|sigh and mourn, Fare-|
AA EE FD | GG G2 z |] 
w: well my bon- ny girl till|l re- turn.|



